X:1
T: Miss Charlotte Ann Lowe
C:
R:Reel
Q: 232
K:F
M:4/4
L:1/8
|:B|AF F2 BG G2|AF F2 EG EC|AF F2 BA GB|AF GE F3B|
AF F2 BG G2|AF F2 EG EC|AF F2 BA GB|AF GE F3e|
fc c2 Ac fa|ba gf eg ec|fc c2 Ac fa|bg fe f3e|
fc c2 Ac fa|ba gf eg ec|df eg fa gf|ec de f3:|
